src/4-icons/down.svg

<svg width="260" height="260" viewBox="0 0 260 260" fill="none" xmlns="http://www.w3.org/2000/svg">
<g opacity="0.9">
<path d="M130 58.6016C126.134 58.6016 123 61.7356 123 65.6016V178.1L80.9498 136.05C78.2161 133.317 73.7839 133.317 71.0503 136.05C68.3166 138.784 68.3166 143.216 71.0503 145.95L124.79 199.69C126.19 201.09 128.036 201.773 129.87 201.739C131.705 201.773 133.55 201.09 134.95 199.69L188.69 145.95C191.423 143.216 191.423 138.784 188.69 136.05C185.956 133.317 181.524 133.317 178.79 136.05L137 177.841V65.6016C137 61.7356 133.866 58.6016 130 58.6016Z" fill="black"/>
<path fill-rule="evenodd" clip-rule="evenodd" d="M130 260C58.203 260 0 201.797 0 130C0 58.203 58.203 0 130 0C201.797 0 260 58.203 260 130C260 201.797 201.797 260 130 260ZM130 246C65.935 246 14 194.065 14 130C14 65.935 65.935 14 130 14C194.065 14 246 65.935 246 130C246 194.065 194.065 246 130 246Z" fill="black"/>
</g>
</svg>

<svg width="260" height="260" viewBox="0 0 260 260" fill="none" xmlns="http://www.w3.org/2000/svg"><g opacity=".9" fill="#000"><path d="M130 58.602a7 7 0 0 0-7 7V178.1l-42.05-42.05a7.001 7.001 0 0 0-9.9 9.9l53.74 53.74a6.98 6.98 0 0 0 5.08 2.049 6.979 6.979 0 0 0 5.08-2.049l53.74-53.74a7.002 7.002 0 0 0 0-9.9 7.002 7.002 0 0 0-9.9 0L137 177.841V65.601a7 7 0 0 0-7-7Z"/><path fill-rule="evenodd" clip-rule="evenodd" d="M130 260C58.203 260 0 201.797 0 130S58.203 0 130 0s130 58.203 130 130-58.203 130-130 130Zm0-14c-64.065 0-116-51.935-116-116S65.935 14 130 14s116 51.935 116 116-51.935 116-116 116Z"/></g></svg>
